X:1
T:Title
%%score ( 1 2 ) ( 3 4 )
L:1/8
Q:1/4=100
M:4/4
K:Gb
V:1 treble nm="Strings 1, Soprano"
V:2 treble 
V:3 bass nm="Strings 1, Bass"
V:4 bass 
V:1
 z4 z2 G>[GA] | [GB]2 [GB]2 [GB][GB] [Bd]>[GB] | [DG]2 [DG][FA] [GB]2 [DB]>[Dc] | %3
w: 1.~There's~ a~|foun tain~ o pened~ in~ the~|house~ of~ * God,~ Where~ the~|
 [Dd]2 [Gd]>[Gd] dB G>[GB] | [FA]6 G>[GA] | [GB]2 [GB]2 [GB][GB] [Bd]>[GB] | %6
w: vil est~ of~ sin * ners~ may~|go,~ And~ all~|test~ the~ pow er~ of~ the~|
 [DG]2 [DG][FA] [GB]2 [DB]>[Dc] | [Gd]2 [Gd]>[GB] G2 [FA]>[FA] | [DG]6 B>A | G6 z2 | B6 z2 | %11
w: crim son~ * flood,~ Of~ the~|blood~ that~ makes~ whit er~ than~|snow.~ * *|||
 z4 .d2 z2 | [FA]6 G>[GA] | [GB]2 [GB]2 [GB]>[GB] [Bd]>[GB] | [DG]2 [DG][FA] [GB]2 [DB]>[Dc] | %15
w: ||||
 [Gd]2 [Gd]>[GB] G2 [FA]>[FA] | [DG]6 z2 |] %17
w: ||
V:2
 x8 | x8 | x8 | z4 G2 z2 | x8 | x8 | x8 | x8 | x8 | z2 D>D D2 G>A | z2 G>G G2 [DB]>[Dc] | %11
 [Gd]2 [Gd][Gd] G-[GB] G>[GB] | x8 | x8 | x8 | x8 | x8 |] %17
V:3
 z4 z2 [G,B,]>[G,C] | [G,D]2 [G,D]2 [G,D][G,D] [G,D]>[G,D] | [G,B,]2 [G,B,][D,D] [G,D]2 G,>[G,A,] | %3
 z4 .B,2 z2 | [D,D]6 [G,B,]>[G,C] | [G,D]2 [G,D]2 [G,D][G,D] [G,D]>[G,D] | %6
 [G,B,]2 [G,B,][D,D] [G,D]2 G,>[G,A,] | [G,B,]2 [G,B,]>[G,D] [D,B,]2 [D,C]>[D,C] | [G,,G,B,]6 D>C | %9
 B,6 z2 | D6 z2 | z4 .B,2 z2 | D6 z2 | [G,,D]2 [G,D]2 [G,D]>[G,D] [G,D]>[G,D] | %14
 [G,B,]2 [G,B,][D,D] [G,D]2 G,>[G,A,] | [G,B,]2 [G,B,]>[G,D] [D,B,]2 [D,C]>[D,C] | [G,,G,B,]6 z2 |] %17
V:4
 x8 | x8 | x8 | [G,B,]2 [G,B,]>[G,B,] G,-[G,D] [B,D]>[G,D] | x8 | x8 | x8 | x8 | x8 | %9
 z2 G,>G, G,2 B,>C | z2 G,>G, G,2 G,>[G,A,] | [G,B,]2 [G,B,][G,B,] G,-[G,D] [B,D]>[G,D] | %12
 D,2 D,>D, D,C, [B,,D]>[A,,D] | x8 | x8 | x8 | x8 |] %17

